X:482
T:The Harvey Street hornpipe
R:Hornpipe
S:Richard Darsie's web page
Z:Transcription, chords:Mike Long
M:4/4
L:1/8
K:G
AG|\
"Am"EAAB "(G)"AGEG|"C"cdef "(D)"gefd|\
"Am"eaag "(C)"eged|"D/G"(3(cdc) Bc "(Em)"AGED|\
"Am"EAAB "(G)"AGEG|
"C"cdef "(D)"gefd|\
"Am"eaag "(C)"eged|"D/G"(3(cdc) "(Em)"Bc "Am"A2:|\
|:a2|\
"Am"a^gab "(G)"a^gab|"C"gfga "(D)"gecd|
"Am"eAfA "(C)"gedB|"D/G"cABG "(Em)"AGED|\
"Am"EAAB "(G)"AGEG|"C"cdef "(D)"gefd|\
"Am"eaag "(C)"eged|"D/G"(3(cdc) "(Em)"Bc "Am"A2:|
